symbols/web/local_atm/materialsymbolsrounded/local_atm_wght100gradN25fill1_40px.svg

<svg xmlns="http://www.w3.org/2000/svg" height="40" width="40"><path d="M16.667 25.542h2.875v1.25q0 .208.146.354.145.146.354.146.208 0 .333-.146.125-.146.125-.354v-1.25h2.25q.458 0 .792-.334.333-.333.333-.75v-3.833q0-.458-.333-.792-.334-.333-.792-.333h-5.625v-4.083h6.292q.125 0 .291-.146.167-.146.167-.354 0-.209-.167-.334-.166-.125-.291-.125H20.5v-1.25q0-.208-.146-.354t-.312-.146q-.209 0-.354.146-.146.146-.146.354v1.25h-2.25q-.459 0-.792.334-.333.333-.333.791v3.792q0 .458.333.771.333.312.792.312h5.625v4.125h-6.25q-.209 0-.355.146-.145.146-.145.313 0 .25.145.375.146.125.355.125Zm-8.792 5.583q-.958 0-1.625-.687-.667-.688-.667-1.605V11.167q0-.917.667-1.605.667-.687 1.625-.687h24.25q.958 0 1.625.687.667.688.667 1.605v17.666q0 .917-.667 1.605-.667.687-1.625.687Z"/></svg>

<svg xmlns="http://www.w3.org/2000/svg" height="40" width="40"><path d="M16.667 25.542H19.542V26.792Q19.542 27 19.688 27.146Q19.833 27.292 20.042 27.292Q20.25 27.292 20.375 27.146Q20.5 27 20.5 26.792V25.542H22.75Q23.208 25.542 23.542 25.208Q23.875 24.875 23.875 24.458V20.625Q23.875 20.167 23.542 19.833Q23.208 19.5 22.75 19.5H17.125V15.417H23.417Q23.542 15.417 23.708 15.271Q23.875 15.125 23.875 14.917Q23.875 14.708 23.708 14.583Q23.542 14.458 23.417 14.458H20.5V13.208Q20.5 13 20.354 12.854Q20.208 12.708 20.042 12.708Q19.833 12.708 19.688 12.854Q19.542 13 19.542 13.208V14.458H17.292Q16.833 14.458 16.5 14.792Q16.167 15.125 16.167 15.583V19.375Q16.167 19.833 16.5 20.146Q16.833 20.458 17.292 20.458H22.917V24.583H16.667Q16.458 24.583 16.312 24.729Q16.167 24.875 16.167 25.042Q16.167 25.292 16.312 25.417Q16.458 25.542 16.667 25.542ZM7.875 31.125Q6.917 31.125 6.25 30.438Q5.583 29.75 5.583 28.833V11.167Q5.583 10.25 6.25 9.562Q6.917 8.875 7.875 8.875H32.125Q33.083 8.875 33.75 9.562Q34.417 10.25 34.417 11.167V28.833Q34.417 29.75 33.75 30.438Q33.083 31.125 32.125 31.125Z"/></svg>
